icon-themes/breeze_svg/cmd/lc_combobox.svg

<svg viewBox="0 0 24 24" xmlns="http://www.w3.org/2000/svg"><path d="m4 4v16h1 15v-1-15h-1-14zm11.621094 1 1.378906.8183594 1.378906-.8183594.621094.8183594-1.689453 1-.310547.1816406-.310547-.1816406-1.689453-1zm-10.621094 3h14v11h-14zm1 2v1h12v-1zm0 3v1h10v-1zm0 3v1h8v-1z" fill="#4d4d4d"/></svg>

<svg xmlns="http://www.w3.org/2000/svg" viewBox="0 0 24 24">
 <path 
     style="fill:#4d4d4d" 
     d="M 4 4 L 4 20 L 5 20 L 20 20 L 20 19 L 20 4 L 19 4 L 5 4 L 4 4 z M 15.621094 5 L 17 5.8183594 L 18.378906 5 L 19 5.8183594 L 17.310547 6.8183594 L 17 7 L 16.689453 6.8183594 L 15 5.8183594 L 15.621094 5 z M 5 8 L 19 8 L 19 19 L 5 19 L 5 8 z M 6 10 L 6 11 L 18 11 L 18 10 L 6 10 z M 6 13 L 6 14 L 16 14 L 16 13 L 6 13 z M 6 16 L 6 17 L 14 17 L 14 16 L 6 16 z "
     />
 </svg>
